assets/icons/24px/outline/iphone-24px.svg

<svg width="24" height="24" viewBox="0 0 24 24" fill="none" xmlns="http://www.w3.org/2000/svg">
<path d="M6.58579 20.4142L7.29289 19.7071L6.58579 20.4142ZM17.4142 20.4142L18.1213 21.1213L17.4142 20.4142ZM17.4142 3.58579L18.1213 2.87868L17.4142 3.58579ZM17 7V17H19V7H17ZM14 20H10V22H14V20ZM7 17V7H5V17H7ZM10 4H14V2H10V4ZM10 20C9.02892 20 8.40121 19.9979 7.9387 19.9357C7.50496 19.8774 7.36902 19.7832 7.29289 19.7071L5.87868 21.1213C6.38834 21.631 7.01669 21.8297 7.67221 21.9179C8.29896 22.0021 9.08546 22 10 22V20ZM5 17C5 17.9145 4.99788 18.701 5.08214 19.3278C5.17027 19.9833 5.36902 20.6117 5.87868 21.1213L7.29289 19.7071C7.21677 19.631 7.12262 19.495 7.06431 19.0613C7.00212 18.5988 7 17.9711 7 17H5ZM17 17C17 17.9711 16.9979 18.5988 16.9357 19.0613C16.8774 19.495 16.7832 19.631 16.7071 19.7071L18.1213 21.1213C18.631 20.6117 18.8297 19.9833 18.9179 19.3278C19.0021 18.701 19 17.9145 19 17H17ZM14 22C14.9145 22 15.701 22.0021 16.3278 21.9179C16.9833 21.8297 17.6117 21.631 18.1213 21.1213L16.7071 19.7071C16.631 19.7832 16.495 19.8774 16.0613 19.9357C15.5988 19.9979 14.9711 20 14 20V22ZM19 7C19 6.08546 19.0021 5.29896 18.9179 4.67221C18.8297 4.01669 18.631 3.38834 18.1213 2.87868L16.7071 4.29289C16.7832 4.36902 16.8774 4.50496 16.9357 4.9387C16.9979 5.40121 17 6.02892 17 7H19ZM14 4C14.9711 4 15.5988 4.00212 16.0613 4.06431C16.495 4.12262 16.631 4.21677 16.7071 4.29289L18.1213 2.87868C17.6117 2.36902 16.9833 2.17027 16.3278 2.08214C15.701 1.99788 14.9145 2 14 2V4ZM7 7C7 6.02892 7.00212 5.40121 7.06431 4.9387C7.12262 4.50496 7.21677 4.36902 7.29289 4.29289L5.87868 2.87868C5.36902 3.38834 5.17027 4.01669 5.08214 4.67221C4.99788 5.29896 5 6.08546 5 7H7ZM10 2C9.08546 2 8.29896 1.99788 7.67221 2.08214C7.01669 2.17027 6.38834 2.36902 5.87868 2.87868L7.29289 4.29289C7.36902 4.21677 7.50496 4.12262 7.9387 4.06431C8.40121 4.00212 9.02892 4 10 4V2Z" fill="white"/>
<path d="M10 5H14C14.5523 5 15 4.55228 15 4C15 3.44772 14.5523 3 14 3L10 3C9.44771 3 9 3.44772 9 4C9 4.55228 9.44772 5 10 5Z" fill="white"/>
<path d="M9 18L15 18" stroke="white" stroke-linecap="round"/>
</svg>

<svg width="24" height="24" fill="none" xmlns="http://www.w3.org/2000/svg"><path d="M6.586 20.414l.707-.707-.707.707zm10.828 0l.707.707-.707-.707zm0-16.828l.707-.707-.707.707zM17 7v10h2V7h-2zm-3 13h-4v2h4v-2zm-7-3V7H5v10h2zm3-13h4V2h-4v2zm0 16c-.971 0-1.599-.002-2.061-.064-.434-.059-.57-.153-.646-.229l-1.414 1.414c.51.51 1.138.709 1.793.797C8.3 22.002 9.085 22 10 22v-2zm-5-3c0 .915-.002 1.701.082 2.328.088.655.287 1.284.797 1.793l1.414-1.414c-.076-.076-.17-.212-.229-.646C7.002 18.6 7 17.971 7 17H5zm12 0c0 .971-.002 1.599-.064 2.061-.059.434-.153.57-.229.646l1.414 1.414c.51-.51.709-1.138.797-1.793C19.002 18.7 19 17.915 19 17h-2zm-3 5c.915 0 1.701.002 2.328-.082.655-.088 1.284-.287 1.793-.797l-1.414-1.414c-.076.076-.212.17-.646.229-.462.062-1.09.064-2.061.064v2zm5-15c0-.915.002-1.701-.082-2.328-.088-.655-.287-1.284-.797-1.793l-1.414 1.414c.076.076.17.212.229.646C16.998 5.4 17 6.029 17 7h2zm-5-3c.971 0 1.599.002 2.061.064.434.059.57.153.646.229l1.414-1.414c-.51-.51-1.138-.709-1.793-.797C15.7 1.998 14.915 2 14 2v2zM7 7c0-.971.002-1.599.064-2.061.059-.434.153-.57.229-.646L5.879 2.879c-.51.51-.709 1.138-.797 1.793C4.998 5.3 5 6.085 5 7h2zm3-5c-.915 0-1.701-.002-2.328.082-.655.088-1.284.287-1.793.797l1.414 1.414c.076-.076.212-.17.646-.229C8.4 4.002 9.029 4 10 4V2z" fill="#fff"/><path d="M10 5h4a1 1 0 1 0 0-2h-4a1 1 0 1 0 0 2z" fill="#fff"/><path d="M9 18h6" stroke="#fff" stroke-linecap="round"/></svg>
